img/logo_htmlacademy.svg

<svg width="199" height="58" viewBox="0 0 199 58" fill="none" xmlns="http://www.w3.org/2000/svg">
<g opacity="0.2" clip-path="url(#clip0)">
<path d="M0 22.2888V26.7466H4.25322V22.2888H0Z" fill="black"/>
<path d="M20.1536 7.83826C17.4538 7.83826 15.2717 9.06414 13.9033 10.8473H13.7553V0H10.2418V26.7466H13.7553V17.5711C13.7553 13.8934 16.0484 11.2559 19.414 11.2559C22.5946 11.2559 24.4438 13.6334 24.4438 16.8281V26.7466H27.9574V16.1966C27.9574 11.1073 24.8137 7.83826 20.1536 7.83826Z" fill="black"/>
<path d="M46.0591 8.35835H37.7377V1.85742H34.2242V8.35835H30.8956V11.776H34.2242V22.1403C34.2242 25.1121 35.8885 26.7467 38.8843 26.7467H46.0591V23.2919H39.587C38.4034 23.2919 37.7377 22.6232 37.7377 21.4717V11.776H46.0591V8.35835Z" fill="black"/>
<path d="M71.1582 7.87537C68.3471 7.87537 66.2023 9.24984 65.0188 11.4416H64.9078C63.8352 9.28701 61.8381 7.87537 59.1013 7.87537C56.6604 7.87537 54.811 9.17554 53.7016 10.9958H53.5535V8.35831H50.1881V26.7466H53.7016V17.311C53.7016 13.8562 55.5135 11.3302 58.2507 11.2559C60.8394 11.1816 62.3558 13.039 62.3558 15.8251V26.7466H65.8694V17.0138C65.8694 12.8904 68.3104 11.2559 70.4185 11.2559C72.9704 11.2559 74.4869 13.039 74.4869 15.8251V26.7466H78.0001V15.4536C78.0001 10.9958 75.4853 7.87537 71.1582 7.87537Z" fill="black"/>
<path d="M82.7619 21.9917C82.7619 25.0007 84.4632 26.7466 87.6067 26.7466H91.0832V23.329H88.1245C86.9409 23.329 86.2751 22.6603 86.2751 21.5088V0H82.7619V21.9917Z" fill="black"/>
<path d="M50.0178 34.1004H49.8697C48.4988 32.2539 46.2761 30.9614 43.3119 30.9245C37.8653 30.8506 33.975 34.8759 33.975 40.5632C33.975 46.2873 37.9394 50.3128 43.2748 50.2389C46.3128 50.2018 48.4988 48.8355 49.8697 46.878H50.0178V49.7216H53.501V31.4414H50.0178V34.1004ZM43.7934 46.8413C39.9402 46.8413 37.4948 44.0345 37.4948 40.5632C37.4948 37.0918 39.9402 34.2851 43.7934 34.2851C47.5356 34.2851 49.9811 37.0918 49.9811 40.5632C49.9811 43.9978 47.5356 46.8413 43.7934 46.8413Z" fill="black"/>
<path d="M76.5015 38.0888C75.6492 33.9527 71.9813 30.9244 67.1648 30.9244C61.3479 30.9244 57.4576 35.1714 57.4576 40.5631C57.4576 45.9548 61.3479 50.2389 67.1648 50.2389C71.9813 50.2389 75.6492 47.1367 76.5015 42.9635H72.8336C72.0926 45.2902 69.9066 46.878 67.2019 46.878C63.4226 46.878 60.977 44.0344 60.977 40.5631C60.977 37.0917 63.4226 34.285 67.2019 34.285C70.0175 34.285 72.0926 35.9469 72.8336 38.0888H76.5015Z" fill="black"/>
<path d="M95.3185 34.1004H95.1704C93.7995 32.2539 91.5763 30.9614 88.6121 30.9245C83.1657 30.8506 79.2754 34.8759 79.2754 40.5632C79.2754 46.2873 83.24 50.3128 88.575 50.2389C91.6134 50.2018 93.7995 48.8355 95.1704 46.878H95.3185V49.7216H98.8012V31.4414H95.3185V34.1004ZM89.094 46.8413C85.2404 46.8413 82.7953 44.0345 82.7953 40.5632C82.7953 37.0918 85.2404 34.2851 89.094 34.2851C92.8362 34.2851 95.2814 37.0918 95.2814 40.5632C95.2814 43.9978 92.8362 46.8413 89.094 46.8413Z" fill="black"/>
<path d="M118.801 34.285H118.653C117.282 32.3277 114.984 30.9613 112.057 30.9244C106.722 30.8505 102.758 34.8759 102.758 40.6C102.758 46.2873 106.648 50.3127 112.095 50.2389C114.984 50.2017 117.282 48.9093 118.616 47.0628H118.801V49.7216H122.284V23.1322H118.801V34.285ZM112.576 46.878C108.723 46.878 106.278 44.0716 106.278 40.6C106.278 37.1286 108.723 34.3219 112.576 34.3219C116.319 34.3219 118.764 37.1655 118.764 40.6C118.764 44.0716 116.319 46.878 112.576 46.878Z" fill="black"/>
<path d="M135.544 30.9244C129.913 30.9244 126.059 35.2452 126.059 40.6001C126.059 45.8071 129.69 50.2389 135.618 50.2389C139.916 50.2389 143.362 47.9122 144.585 44.0344H140.917C140.102 45.7704 138.138 46.878 135.767 46.878C132.432 46.878 130.061 44.6623 129.801 41.8187H144.955C145.437 35.7253 141.621 30.9244 135.544 30.9244ZM135.47 34.285C138.397 34.285 140.583 36.0946 141.139 38.7166H129.876C130.394 36.1315 132.58 34.285 135.47 34.285Z" fill="black"/>
<path d="M169.926 30.9614C167.11 30.9614 164.961 32.3278 163.776 34.5067H163.664C162.59 32.3647 160.589 30.9614 157.847 30.9614C155.402 30.9614 153.55 32.254 152.438 34.0635H152.29V31.4415H148.918V49.7217H152.438V40.3416C152.438 36.9071 154.254 34.3959 156.996 34.322C159.589 34.2482 161.108 36.0947 161.108 38.8644V49.7217H164.628V40.0462C164.628 35.9469 167.073 34.322 169.185 34.322C171.742 34.322 173.261 36.0947 173.261 38.8644V49.7217H176.78V38.4951C176.78 34.0635 174.261 30.9614 169.926 30.9614Z" fill="black"/>
<path d="M189.381 46.8042L183.083 31.4414H179.192L187.566 51.4575L187.529 51.5314C186.936 53.0453 186.269 53.5994 184.639 53.5994H180.304V57.1075H184.639C187.825 57.1075 189.529 55.6674 190.715 52.5652L198.792 31.4414H195.198L189.381 46.8042Z" fill="black"/>
</g>
<defs>
<clipPath id="clip0">
<rect width="199" height="57.1551" fill="white"/>
</clipPath>
</defs>
</svg>

<svg width="199" height="58" fill="none" xmlns="http://www.w3.org/2000/svg"><g opacity=".2" clip-path="url(#clip0)" fill="#000"><path d="M0 22.29v4.46h4.25v-4.46H0zM20.15 7.84a7.74 7.74 0 00-6.25 3h-.14V0h-3.52v26.75h3.52v-9.18c0-3.68 2.29-6.31 5.65-6.31 3.18 0 5.03 2.37 5.03 5.57v9.92h3.52V16.2c0-5.1-3.15-8.36-7.8-8.36zM46.06 8.36h-8.32v-6.5h-3.52v6.5H30.9v3.42h3.32v10.36c0 2.97 1.67 4.6 4.66 4.6h7.18V23.3h-6.47c-1.19 0-1.85-.67-1.85-1.82v-9.7h8.32V8.37zM71.16 7.88a6.7 6.7 0 00-6.14 3.56h-.11a6.22 6.22 0 00-5.8-3.56A6.2 6.2 0 0053.7 11h-.16V8.36H50.2v18.39h3.51V17.3c0-3.45 1.81-5.98 4.55-6.05 2.59-.08 4.1 1.78 4.1 4.57v10.92h3.52V17c0-4.12 2.44-5.75 4.55-5.75 2.55 0 4.07 1.78 4.07 4.57v10.92H78v-11.3c0-4.45-2.51-7.57-6.84-7.57zM82.76 22c0 3 1.7 4.75 4.85 4.75h3.47v-3.42h-2.96c-1.18 0-1.84-.67-1.84-1.82V0h-3.52v22zM50.02 34.1h-.15a8.02 8.02 0 00-6.56-3.18c-5.44-.07-9.34 3.96-9.34 9.64 0 5.73 3.97 9.75 9.3 9.68a7.84 7.84 0 006.6-3.36h.15v2.84h3.48V31.44h-3.48v2.66zm-6.23 12.74c-3.85 0-6.3-2.8-6.3-6.28a6.06 6.06 0 016.3-6.27c3.75 0 6.2 2.8 6.2 6.27 0 3.44-2.45 6.28-6.2 6.28zM76.5 38.09c-.85-4.14-4.52-7.17-9.34-7.17-5.81 0-9.7 4.25-9.7 9.64 0 5.4 3.89 9.68 9.7 9.68 4.82 0 8.49-3.1 9.34-7.28h-3.67a5.74 5.74 0 01-5.63 3.92c-3.78 0-6.22-2.85-6.22-6.32s2.44-6.28 6.22-6.28c2.82 0 4.9 1.67 5.63 3.8h3.67zM95.32 34.1h-.15a8.02 8.02 0 00-6.56-3.18c-5.44-.07-9.33 3.96-9.33 9.64 0 5.73 3.96 9.75 9.3 9.68a7.84 7.84 0 006.59-3.36h.15v2.84h3.48V31.44h-3.48v2.66zm-6.23 12.74c-3.85 0-6.3-2.8-6.3-6.28a6.06 6.06 0 016.3-6.27c3.75 0 6.2 2.8 6.2 6.27 0 3.44-2.45 6.28-6.2 6.28zM118.8 34.28h-.15a8 8 0 00-6.6-3.36c-5.33-.07-9.3 3.96-9.3 9.68 0 5.69 3.9 9.71 9.34 9.64a8 8 0 006.53-3.18h.18v2.66h3.48V23.13h-3.48v11.15zm-6.22 12.6c-3.86 0-6.3-2.8-6.3-6.28a6.06 6.06 0 016.3-6.28c3.74 0 6.18 2.85 6.18 6.28 0 3.47-2.44 6.28-6.18 6.28zM135.54 30.92c-5.63 0-9.48 4.33-9.48 9.68 0 5.2 3.63 9.64 9.56 9.64 4.3 0 7.74-2.33 8.97-6.2h-3.67c-.82 1.73-2.78 2.84-5.15 2.84-3.34 0-5.7-2.22-5.97-5.06h15.16c.48-6.1-3.34-10.9-9.42-10.9zm-.07 3.36a5.55 5.55 0 015.67 4.44h-11.26a5.5 5.5 0 015.59-4.44zM169.93 30.96a6.72 6.72 0 00-6.15 3.55h-.12a6.24 6.24 0 00-5.81-3.55c-2.45 0-4.3 1.3-5.41 3.1h-.15v-2.62h-3.37v18.28h3.52v-9.38c0-3.43 1.81-5.94 4.56-6.02 2.59-.07 4.1 1.77 4.1 4.54v10.86h3.53v-9.67c0-4.1 2.44-5.73 4.56-5.73 2.55 0 4.07 1.77 4.07 4.54v10.86h3.52V38.5c0-4.44-2.52-7.54-6.85-7.54zM189.38 46.8l-6.3-15.36h-3.89l8.38 20.02-.04.07c-.6 1.52-1.26 2.07-2.9 2.07h-4.33v3.5h4.34c3.19 0 4.89-1.43 6.08-4.53l8.07-21.13h-3.6l-5.8 15.36z"/></g><defs><clipPath id="clip0"><path fill="#fff" d="M0 0h199v57.16H0z"/></clipPath></defs></svg>
